_site/images/features-page/circle-feather-white.svg

<svg fill="none" height="44" viewBox="0 0 44 44" width="44" xmlns="http://www.w3.org/2000/svg"><circle cx="22" cy="22" r="21" stroke="#f9fcff"/><g fill="#f9fcff"><path clip-rule="evenodd" d="m31.9363 12.2845c.0342.0782.0579.2257.0576.2261.1508 2.4811-2.5593 6.7688-2.9286 7.3391-.34.5254-.9519.5634-1.9186.5634-.2812 0-.5913-.0057-.9038-.0117.3727.3151.6498.665.6891 1.1298.0307.3642-.1011.7104-.3715.9748-5.7017 5.5803-9.9774 6.0142-11.1519 6.0142-.2815 0-.4281-.0222-.4281-.0222-.006-.0009-.0115-.0036-.017-.0062-.0053-.0025-.0106-.0051-.0163-.0061-.374.7302-.7258 1.4687-1.0342 2.2201-.0754.1827-.2524.2942-.4386.2942-.0602 0-.1213-.0114-.1802-.0355-.2423-.1-.3582-.3774-.2584-.6206 3.2335-7.8756 10.0654-14.7186 18.276-18.3042.242-.1049.5206.0054.6245.2448zm-4.7893 7.1782c.5937 0 1.0551-.026 1.1226-.1301 1.5247-2.3545 2.5371-4.6754 2.7509-6.1102-6.5843 3.0518-12.1935 8.2448-15.5869 14.3468 1.121-.0054 5.0522-.4459 10.4641-5.7429.3242-.3172-.2852-.7392-.8915-1.159-.575-.3982-1.1472-.7944-.917-1.0973.0807-.1063.5573-.1326 1.1621-.1326.2972 0 .6253.0063.9526.0127.3256.0063.6504.0126.9431.0126z" fill-rule="evenodd"/><path d="m31.9939 12.5106-.1866-.1663-.0692.0776.0063.1038zm-.0576-.2261-.2293.0995.0002.0005zm-2.871 7.5652-.2098-.1358zm-2.8224.5517.0048-.25-.7037-.0135.5375.4544zm.6891 1.1298.2491-.0209v-.0001zm-.3715.9748-.1748-.1788-.0001.0001zm-11.58 5.992-.0399.2468.0025.0004zm-.017-.0062-.108.2255zm-.0163-.0061.0466-.2456-.1838-.035-.0853.1666zm-1.0342 2.2201.2311.0954.0001-.0004zm-.6188.2587-.0954.2311.0009.0004zm-.2584-.6206-.2313-.095v.0001zm18.276-18.3042-.0994-.2294-.0006.0003zm-3.0422 7.2929.2098.1359zm2.7509-6.1102.2472.0368.0683-.4586-.4207.195zm-15.5869 14.3468-.2185-.1215-.2077.3735.4274-.002zm10.4641-5.7429-.1748-.1787-.0001.0001zm-.8915-1.159.1423-.2056zm-.917-1.0973.199.1513.0001-.0001zm2.1147-.1199.0049-.25zm5.9767-6.7732c.0258-.0345.052-.092.0573-.1116.0022-.0111.0047-.0292.0054-.0363.0009-.0127.0006-.0227.0005-.0259-.0002-.0079-.0008-.014-.0009-.0156-.0004-.0046-.0009-.0081-.001-.0091-.0004-.0028-.0007-.0051-.0009-.0063-.0004-.0027-.0009-.0056-.0013-.0084-.0009-.0057-.0022-.0132-.0038-.0219-.0031-.0175-.0077-.0414-.0136-.0683-.0105-.0482-.0291-.1256-.0569-.1891l-.4582.2001c.0021.0049.0065.0167.012.0363.0053.0185.0102.0391.0146.0591.0043.0199.0077.0378.01.0505.0012.0063.002.0111.0024.0138.0003.0014.0003.0018.0002.0013 0 0-.0002-.0015-.0005-.0037-.0001-.0007-.0005-.004-.0009-.0084-.0001-.0015-.0007-.0076-.0009-.0155-.0001-.0032-.0004-.0131.0005-.0258.0007-.0071.0032-.0252.0054-.0362.0053-.0197.0315-.0772.0573-.1116zm-2.9054 7.3087c.1872-.2892.9632-1.5134 1.6744-2.9798.3556-.7332.6972-1.5316.9408-2.3071.2425-.772.3935-1.5389.3531-2.2033l-.4991.0303c.035.5762-.0962 1.2757-.331 2.0232-.2338.7441-.5644 1.5186-.9137 2.2387-.6985 1.4402-1.4622 2.6451-1.6442 2.9263zm-2.1285.6775c.4788 0 .9027-.0084 1.2521-.0915.3632-.0863.6635-.2571.8764-.586l-.4197-.2717c-.1272.1964-.3028.3073-.5723.3713-.2832.0673-.6486.0779-1.1365.0779zm-.9086-.0118c.3121.006.6246.0118.9086.0118v-.5c-.2784 0-.5861-.0057-.899-.0117zm.943.8589c-.0476-.5629-.3849-.9685-.7768-1.2998l-.3228.3819c.3536.2989.5704.5932.6014.96zm-.4458 1.1745c.3217-.3145.483-.7331.4458-1.1744l-.4982.0419c.0241.2871-.0781.5608-.2972.775zm-11.3267 6.0855c1.243 0 5.5806-.4617 11.3268-6.0856l-.3498-.3573c-5.6571 5.5368-9.8709 5.9429-10.977 5.9429zm-.4281-.2722c-.0374.2472-.0373.2472-.0373.2472h.0001s.0001.0001.0001.0001h.0004c.0002.0001.0005.0001.0008.0001.0007.0001.0015.0003.0024.0004.0019.0003.0044.0006.0074.001.006.0008.0144.0018.0249.0031.0212.0024.0514.0054.0905.0085.078.006.1915.0118.3388.0118v-.5c-.1342 0-.2348-.0053-.3004-.0104-.0328-.0025-.0569-.005-.072-.0067-.0076-.0009-.0129-.0015-.016-.0019-.0015-.0003-.0025-.0004-.0029-.0004-.0002-.0001-.0002-.0001-.0001-.0001 0 0 .0001 0 .0002.0001h.0002.0001.0001s0 0-.0373.2472zm-.125.2193c.0014.0006.0122.0059.0246.0108.0136.0054.0344.0125.0605.0167l.0797-.4936c.0201.0033.0352.0086.0431.0117.0069.0027.0122.0054.008.0034zm.0451.014c-.0179-.0034-.0313-.0083-.0383-.0111-.006-.0025-.0106-.0048-.0068-.0029l.2159-.451c-.0001-.0001-.0345-.0181-.0776-.0262zm-.7564 2.0695c.305-.7431.6536-1.475 1.0255-2.2012l-.445-.2279c-.3761.7343-.7312 1.4794-1.043 2.2392zm-.6698.4492c.2845 0 .5546-.1699.6697-.4488l-.4622-.1907c-.0357.0865-.1197.1395-.2075.1395zm-.2747-.054c.0895.0365.1827.054.2747.054v-.5c-.0284 0-.0574-.0054-.0857-.0169zm-.3952-.947c-.152.3707.0246.7939.3943.9466l.1908-.4621c-.1148-.0475-.17-.179-.1225-.2948zm18.4073-18.4384c-8.2667 3.6101-15.1477 10.4993-18.4073 18.4383l.4626.1899c3.2075-7.8121 9.9902-14.6088 18.1448-18.17zm.9539.3743c-.1592-.3667-.5854-.534-.9533-.3746l.1988.4588c.1161-.0503.2472.0028.2958.1149zm-4.106 7.0118c.0127-.0196.026-.0321.0344-.039s.0144-.0101.0155-.0107c.0014-.0007-.0058.0031-.0268.0088-.0419.0116-.1082.0229-.2017.0321-.1851.0183-.4386.0248-.7341.0248v.5c.2982 0 .5723-.0064.7831-.0272.1046-.0103.2034-.025.2855-.0476.041-.0113.0856-.0267.1274-.0487.0394-.0208.0955-.0575.1364-.1207zm2.7135-6.0111c-.2059 1.3824-1.1958 3.6676-2.7135 6.0111l.4197.2718c1.5319-2.3655 2.5668-4.7221 2.7883-6.2093zm-15.1211 14.5051c3.3671-6.0546 8.936-11.2114 15.4735-14.2415l-.2103-.4536c-6.6309 3.0734-12.2804 8.3027-15.7002 14.4521zm10.0707-6.043c-5.3697 5.2556-9.24 5.6664-10.2904 5.6715l.0024.5c1.1916-.0058 5.1836-.4759 10.6378-5.8142zm-.8589-.7749c.3114.2156.5899.41.7557.5846.0839.0884.1115.1443.1173.1694 0 .0003.0088-.0015-.014.0208l.3496.3574c.1393-.1363.1935-.3098.1515-.491-.0362-.1564-.1382-.2917-.2418-.4009-.2095-.2206-.5388-.4472-.8337-.6514zm-.9738-1.454c-.1144.1506-.1261.3221-.0714.4775.0488.1385.1478.2607.25.3632.2058.2064.5146.4191.7952.6133l.2846-.4111c-.2944-.2039-.5592-.3883-.7257-.5553-.084-.0842-.1207-.1427-.1325-.1761-.0058-.0165-.0027-.0081-.0021-.009zm1.3612-.2314c-.3038 0-.5842.0065-.8017.0276-.108.0105-.2095.0253-.2941.0478-.0424.0113-.0872.0262-.1292.0471-.0398.0198-.0937.053-.1363.109l.3983.3023c-.0223.0294-.0437.0385-.0396.0365.0019-.0009.0123-.0055.0354-.0117.0463-.0123.1169-.024.2138-.0334.1922-.0186.4525-.0252.7534-.0252zm.9575.0127c-.3267-.0063-.6574-.0127-.9575-.0127v.5c.2943 0 .6199.0063.9478.0127zm.9382.0126c-.2898 0-.612-.0062-.9382-.0126l-.0097.5c.325.0063.6523.0126.9479.0126z"/></g></svg>

<svg width="44" height="44" viewBox="0 0 44 44" fill="none" xmlns="http://www.w3.org/2000/svg">
<circle cx="22" cy="22" r="21" stroke="#F9FCFF"/>
<path fill-rule="evenodd" clip-rule="evenodd" d="M31.9363 12.2845C31.9705 12.3627 31.9942 12.5102 31.9939 12.5106C32.1447 14.9917 29.4346 19.2794 29.0653 19.8497C28.7253 20.3751 28.1134 20.4131 27.1467 20.4131C26.8655 20.4131 26.5554 20.4074 26.2429 20.4014C26.6156 20.7165 26.8927 21.0664 26.932 21.5312C26.9627 21.8954 26.8309 22.2416 26.5605 22.506C20.8588 28.0863 16.5831 28.5202 15.4086 28.5202C15.1271 28.5202 14.9805 28.498 14.9805 28.498C14.9745 28.4971 14.969 28.4944 14.9635 28.4918C14.9582 28.4893 14.9529 28.4867 14.9472 28.4857C14.5732 29.2159 14.2214 29.9544 13.913 30.7058C13.8376 30.8885 13.6606 31 13.4744 31C13.4142 31 13.3531 30.9886 13.2942 30.9645C13.0519 30.8645 12.936 30.5871 13.0358 30.3439C16.2693 22.4683 23.1012 15.6253 31.3118 12.0397C31.5538 11.9348 31.8324 12.0451 31.9363 12.2845ZM27.147 19.4627C27.7407 19.4627 28.2021 19.4367 28.2696 19.3326C29.7943 16.9781 30.8067 14.6572 31.0205 13.2224C24.4362 16.2742 18.827 21.4672 15.4336 27.5692C16.5546 27.5638 20.4858 27.1233 25.8977 21.8263C26.2219 21.5091 25.6125 21.0871 25.0062 20.6673C24.4312 20.2691 23.859 19.8729 24.0892 19.57C24.1699 19.4637 24.6465 19.4374 25.2513 19.4374C25.5485 19.4374 25.8766 19.4437 26.2039 19.4501C26.5295 19.4564 26.8543 19.4627 27.147 19.4627Z" fill="#F9FCFF"/>
<path d="M31.9939 12.5106L31.8073 12.3443L31.7381 12.4219L31.7444 12.5257L31.9939 12.5106ZM31.9363 12.2845L31.707 12.384L31.7072 12.3845L31.9363 12.2845ZM29.0653 19.8497L28.8555 19.7139L28.8555 19.7139L29.0653 19.8497ZM26.2429 20.4014L26.2477 20.1514L25.544 20.1379L26.0815 20.5923L26.2429 20.4014ZM26.932 21.5312L27.1811 21.5103L27.1811 21.5102L26.932 21.5312ZM26.5605 22.506L26.3857 22.3272L26.3856 22.3273L26.5605 22.506ZM14.9805 28.498L14.9406 28.7448L14.9431 28.7452L14.9805 28.498ZM14.9635 28.4918L14.8555 28.7173L14.8555 28.7173L14.9635 28.4918ZM14.9472 28.4857L14.9938 28.2401L14.81 28.2051L14.7247 28.3717L14.9472 28.4857ZM13.913 30.7058L14.1441 30.8012L14.1442 30.8008L13.913 30.7058ZM13.2942 30.9645L13.1988 31.1956L13.1997 31.196L13.2942 30.9645ZM13.0358 30.3439L12.8045 30.2489L12.8045 30.249L13.0358 30.3439ZM31.3118 12.0397L31.2124 11.8103L31.2118 11.8106L31.3118 12.0397ZM28.2696 19.3326L28.4794 19.4685L28.4794 19.4685L28.2696 19.3326ZM31.0205 13.2224L31.2677 13.2592L31.336 12.8006L30.9153 12.9956L31.0205 13.2224ZM15.4336 27.5692L15.2151 27.4477L15.0074 27.8212L15.4348 27.8192L15.4336 27.5692ZM25.8977 21.8263L25.7229 21.6476L25.7228 21.6477L25.8977 21.8263ZM25.0062 20.6673L25.1485 20.4617L25.0062 20.6673ZM24.0892 19.57L24.2882 19.7213L24.2883 19.7212L24.0892 19.57ZM26.2039 19.4501L26.2088 19.2001L26.2039 19.4501ZM32.1806 12.6769C32.2064 12.6424 32.2326 12.5849 32.2379 12.5653C32.2401 12.5542 32.2426 12.5361 32.2433 12.529C32.2442 12.5163 32.2439 12.5063 32.2438 12.5031C32.2436 12.4952 32.243 12.4891 32.2429 12.4875C32.2425 12.4829 32.242 12.4794 32.2419 12.4784C32.2415 12.4756 32.2412 12.4733 32.241 12.4721C32.2406 12.4694 32.2401 12.4665 32.2397 12.4637C32.2388 12.458 32.2375 12.4505 32.2359 12.4418C32.2328 12.4243 32.2282 12.4004 32.2223 12.3735C32.2118 12.3253 32.1932 12.2479 32.1654 12.1844L31.7072 12.3845C31.7093 12.3894 31.7137 12.4012 31.7192 12.4208C31.7245 12.4393 31.7294 12.4599 31.7338 12.4799C31.7381 12.4998 31.7415 12.5177 31.7438 12.5304C31.745 12.5367 31.7458 12.5415 31.7462 12.5442C31.7465 12.5456 31.7465 12.546 31.7464 12.5455C31.7464 12.5455 31.7462 12.544 31.7459 12.5418C31.7458 12.5411 31.7454 12.5378 31.745 12.5334C31.7449 12.5319 31.7443 12.5258 31.7441 12.5179C31.744 12.5147 31.7437 12.5048 31.7446 12.4921C31.7453 12.485 31.7478 12.4669 31.75 12.4559C31.7553 12.4362 31.7815 12.3787 31.8073 12.3443L32.1806 12.6769ZM29.2752 19.9856C29.4624 19.6964 30.2384 18.4722 30.9496 17.0058C31.3052 16.2726 31.6468 15.4742 31.8904 14.6987C32.1329 13.9267 32.2839 13.1598 32.2435 12.4954L31.7444 12.5257C31.7794 13.1019 31.6482 13.8014 31.4134 14.5489C31.1796 15.293 30.849 16.0675 30.4997 16.7876C29.8012 18.2278 29.0375 19.4327 28.8555 19.7139L29.2752 19.9856ZM27.1467 20.6631C27.6255 20.6631 28.0494 20.6547 28.3988 20.5716C28.762 20.4853 29.0623 20.3145 29.2752 19.9856L28.8555 19.7139C28.7283 19.9103 28.5527 20.0212 28.2832 20.0852C28 20.1525 27.6346 20.1631 27.1467 20.1631V20.6631ZM26.2381 20.6513C26.5502 20.6573 26.8627 20.6631 27.1467 20.6631V20.1631C26.8683 20.1631 26.5606 20.1574 26.2477 20.1514L26.2381 20.6513ZM27.1811 21.5102C27.1335 20.9473 26.7962 20.5417 26.4043 20.2104L26.0815 20.5923C26.4351 20.8912 26.6519 21.1855 26.6829 21.5523L27.1811 21.5102ZM26.7353 22.6847C27.057 22.3702 27.2183 21.9516 27.1811 21.5103L26.6829 21.5522C26.707 21.8393 26.6048 22.113 26.3857 22.3272L26.7353 22.6847ZM15.4086 28.7702C16.6516 28.7702 20.9892 28.3085 26.7354 22.6846L26.3856 22.3273C20.7285 27.8641 16.5147 28.2702 15.4086 28.2702V28.7702ZM14.9805 28.498C14.9431 28.7452 14.9432 28.7452 14.9432 28.7452C14.9432 28.7452 14.9432 28.7452 14.9433 28.7452C14.9433 28.7452 14.9434 28.7453 14.9434 28.7453C14.9435 28.7453 14.9436 28.7453 14.9438 28.7453C14.944 28.7454 14.9443 28.7454 14.9446 28.7454C14.9453 28.7455 14.9461 28.7457 14.947 28.7458C14.9489 28.7461 14.9514 28.7464 14.9544 28.7468C14.9604 28.7476 14.9688 28.7486 14.9793 28.7499C15.0005 28.7523 15.0307 28.7553 15.0698 28.7584C15.1478 28.7644 15.2613 28.7702 15.4086 28.7702V28.2702C15.2744 28.2702 15.1738 28.2649 15.1082 28.2598C15.0754 28.2573 15.0513 28.2548 15.0362 28.2531C15.0286 28.2522 15.0233 28.2516 15.0202 28.2512C15.0187 28.2509 15.0177 28.2508 15.0173 28.2508C15.0171 28.2507 15.0171 28.2507 15.0172 28.2507C15.0172 28.2507 15.0173 28.2507 15.0174 28.2508C15.0174 28.2508 15.0175 28.2508 15.0176 28.2508C15.0176 28.2508 15.0176 28.2508 15.0177 28.2508C15.0177 28.2508 15.0177 28.2508 15.0178 28.2508C15.0178 28.2508 15.0178 28.2508 14.9805 28.498ZM14.8555 28.7173C14.8569 28.7179 14.8677 28.7232 14.8801 28.7281C14.8937 28.7335 14.9145 28.7406 14.9406 28.7448L15.0203 28.2512C15.0404 28.2545 15.0555 28.2598 15.0634 28.2629C15.0703 28.2656 15.0756 28.2683 15.0714 28.2663L14.8555 28.7173ZM14.9006 28.7313C14.8827 28.7279 14.8693 28.723 14.8623 28.7202C14.8563 28.7177 14.8517 28.7154 14.8555 28.7173L15.0714 28.2663C15.0713 28.2662 15.0369 28.2482 14.9938 28.2401L14.9006 28.7313ZM14.1442 30.8008C14.4492 30.0577 14.7978 29.3258 15.1697 28.5996L14.7247 28.3717C14.3486 29.106 13.9935 29.8511 13.6817 30.6109L14.1442 30.8008ZM13.4744 31.25C13.7589 31.25 14.029 31.0801 14.1441 30.8012L13.6819 30.6105C13.6462 30.697 13.5622 30.75 13.4744 30.75V31.25ZM13.1997 31.196C13.2892 31.2325 13.3824 31.25 13.4744 31.25V30.75C13.446 30.75 13.417 30.7446 13.3887 30.7331L13.1997 31.196ZM12.8045 30.249C12.6525 30.6197 12.8291 31.0429 13.1988 31.1956L13.3896 30.7335C13.2748 30.686 13.2196 30.5545 13.2671 30.4387L12.8045 30.249ZM31.2118 11.8106C22.9451 15.4207 16.0641 22.3099 12.8045 30.2489L13.2671 30.4388C16.4746 22.6267 23.2573 15.83 31.4119 12.2688L31.2118 11.8106ZM32.1657 12.1849C32.0065 11.8182 31.5803 11.6509 31.2124 11.8103L31.4112 12.2691C31.5273 12.2188 31.6584 12.2719 31.707 12.384L32.1657 12.1849ZM28.0597 19.1967C28.0724 19.1771 28.0857 19.1646 28.0941 19.1577C28.1025 19.1508 28.1085 19.1476 28.1096 19.147C28.111 19.1463 28.1038 19.1501 28.0828 19.1558C28.0409 19.1674 27.9746 19.1787 27.8811 19.1879C27.696 19.2062 27.4425 19.2127 27.147 19.2127V19.7127C27.4452 19.7127 27.7193 19.7063 27.9301 19.6855C28.0347 19.6752 28.1335 19.6605 28.2156 19.6379C28.2566 19.6266 28.3012 19.6112 28.343 19.5892C28.3824 19.5684 28.4385 19.5317 28.4794 19.4685L28.0597 19.1967ZM30.7732 13.1856C30.5673 14.568 29.5774 16.8532 28.0597 19.1967L28.4794 19.4685C30.0113 17.103 31.0462 14.7464 31.2677 13.2592L30.7732 13.1856ZM15.6521 27.6907C19.0192 21.6361 24.5881 16.4793 31.1256 13.4492L30.9153 12.9956C24.2844 16.069 18.6349 21.2983 15.2151 27.4477L15.6521 27.6907ZM25.7228 21.6477C20.3531 26.9033 16.4828 27.3141 15.4324 27.3192L15.4348 27.8192C16.6264 27.8134 20.6184 27.3433 26.0726 22.005L25.7228 21.6477ZM24.8639 20.8728C25.1753 21.0884 25.4538 21.2828 25.6196 21.4574C25.7035 21.5458 25.7311 21.6017 25.7369 21.6268C25.7369 21.6271 25.7457 21.6253 25.7229 21.6476L26.0725 22.005C26.2118 21.8687 26.266 21.6952 26.224 21.514C26.1878 21.3576 26.0858 21.2223 25.9822 21.1131C25.7727 20.8925 25.4434 20.6659 25.1485 20.4617L24.8639 20.8728ZM23.8901 19.4188C23.7757 19.5694 23.764 19.7409 23.8187 19.8963C23.8675 20.0348 23.9665 20.157 24.0687 20.2595C24.2745 20.4659 24.5833 20.6786 24.8639 20.8728L25.1485 20.4617C24.8541 20.2578 24.5893 20.0734 24.4228 19.9064C24.3388 19.8222 24.3021 19.7637 24.2903 19.7303C24.2845 19.7138 24.2876 19.7222 24.2882 19.7213L23.8901 19.4188ZM25.2513 19.1874C24.9475 19.1874 24.6671 19.1939 24.4496 19.215C24.3416 19.2255 24.2401 19.2403 24.1555 19.2628C24.1131 19.2741 24.0683 19.289 24.0263 19.3099C23.9865 19.3297 23.9326 19.3629 23.89 19.4189L24.2883 19.7212C24.266 19.7506 24.2446 19.7597 24.2487 19.7577C24.2506 19.7568 24.261 19.7522 24.2841 19.746C24.3304 19.7337 24.401 19.722 24.4979 19.7126C24.6901 19.694 24.9504 19.6874 25.2513 19.6874V19.1874ZM26.2088 19.2001C25.8821 19.1938 25.5514 19.1874 25.2513 19.1874V19.6874C25.5456 19.6874 25.8712 19.6937 26.1991 19.7001L26.2088 19.2001ZM27.147 19.2127C26.8572 19.2127 26.535 19.2065 26.2088 19.2001L26.1991 19.7001C26.5241 19.7064 26.8514 19.7127 27.147 19.7127V19.2127Z" fill="#F9FCFF"/>
</svg>
